X: 2
T:The 12 Diatonic Pitch Sets
M:7/4
L:1/4
K:C
"^-5"_A _B  c _d _e  f _g||\
"^-4"_A _B  c _d _e  f  g||\
"^-3"_A _B  c  d _e  f  g||
"^-2" A _B  c  d _e  f  g||\
"^-1" A _B  c  d  e  f  g||\
"^0"  A  B  c  d  e  f  g||
"^+1" A  B  c  d  e ^f  g||\     
"^+2" A  B ^c  d  e ^f  g||\
"^+3" A  B ^c  d  e ^f ^g||
"^+4" A  B ^c ^d  e ^f ^g||\
"^+5"^A  B ^c ^d  e ^f ^g||\
"^+6"^A  B ^c ^d ^e ^f ^g|]

Usually these are written by putting the sharps and flats at the start
of each line, as they won't change:

